lib/assets/images/appbar_payments.svg

<svg width="40" height="40" viewBox="0 0 40 40" fill="none" xmlns="http://www.w3.org/2000/svg">
<path d="M12.5399 13.2822L15.927 16.6691C16.3477 17.0897 16.4136 17.7485 16.0847 18.2442L10.2492 27.0368C9.72598 27.8253 9.8309 28.8732 10.5001 29.5423C11.1691 30.2112 12.2169 30.316 13.0052 29.7929L21.7981 23.9576C22.2938 23.6287 22.9526 23.6946 23.3732 24.1153L26.7597 27.502C27.6793 28.4217 29.2536 27.8152 29.3186 26.5163L30.0394 12.0999C30.0985 10.918 29.124 9.94346 27.942 10.0026L13.5257 10.7234C12.2267 10.7883 11.6203 12.3626 12.5399 13.2822Z" fill="black"/>
</svg>

<svg width="40" height="40" fill="none" xmlns="http://www.w3.org/2000/svg"><path d="M12.54 13.282l3.387 3.387c.42.42.487 1.08.158 1.575l-5.836 8.793a1.988 1.988 0 0 0 2.756 2.756l8.793-5.835a1.25 1.25 0 0 1 1.575.157l3.387 3.387c.92.92 2.494.313 2.559-.986l.72-14.416a2 2 0 0 0-2.097-2.097l-14.416.72c-1.3.065-1.906 1.64-.986 2.56z" fill="#000"/></svg>
